X: 31699
T: Passing Place
R: reel
M: 4/4
K: Dmajor
|:A2f2 efge|f2eg fdef|gAfA edce|dcde GFGA|
A2f2 efge|f2ag fdef|gAfA ga~f2|1 edced2dB:|2 edced2dA||
|:dfac'd'2c'2|ba(3aaa baed|dfgf ga~f2|edcd edcA|
DFAcd2c2|BABcd2c2|BABf ga~f2|edced2dA:|

